X:0163
M:3/4
L:1/8
1/4=120
K:G
dBcA G2|EAAF G2|dBcA G2|EGFD G2 |
EAAF G2|EGFD G2|EAAF G2|EGFD G2|]

